X: 28434
T: Mullingar Lea, The
R: reel
M: 4/4
K: Gdorian
c|B>G G/G/G G2DE|=F2cF Accd|B>G G/G/G G2DF|G2gd Bd2:|
f|gagd Bcde|=fgfc ABc^f|gagd Bcdf|g/f/e/f/ gd Bd2f|
gagd Bcde|=fgfc ABce|(3dcB (3cBA G2DF|G2gd Bd2||
dc|B2 G2 G2 G2|G4 D4|D2 F4 F2|A2 c4 dc|
B2 G2 G2 G2|G4 D4|cBAG cBAG|B2 G:|
|:ef|gfed cded|c4 f4|cBAG FGAB|A4 c4|
B2 G2 A2 D2|B2 G2 A2 D2|gfef g2 G2|B2 d4:|

